docs/images/icons/cursor_designer.svg

<svg width="100" height="39" viewBox="0 0 100 39" fill="none" xmlns="http://www.w3.org/2000/svg">
<rect x="24.5" y="12.5" width="75" height="26" rx="13" fill="#3F94FF"/>
<rect x="24.5" y="12.5" width="75" height="26" rx="13" stroke="#72B0FF"/>
<path d="M38.5322 20.1357C40.0042 20.1357 41.1504 20.5664 41.9707 21.4277C42.791 22.2891 43.2012 23.4967 43.2012 25.0508C43.2012 26.6094 42.791 27.8239 41.9707 28.6943C41.1504 29.5648 40.0042 30 38.5322 30H34.998V20.1357H38.5322ZM36.5293 28.6738H38.3887C39.4368 28.6738 40.2412 28.3639 40.8018 27.7441C41.3623 27.1198 41.6426 26.2266 41.6426 25.0645C41.6426 23.9023 41.3623 23.0091 40.8018 22.3848C40.2412 21.765 39.4368 21.4551 38.3887 21.4551H36.5293V28.6738ZM47.6035 23.6904C47.0703 23.6904 46.6283 23.8682 46.2773 24.2236C45.9219 24.5791 45.7236 25.0417 45.6826 25.6113H49.4492C49.431 25.0326 49.2533 24.5677 48.916 24.2168C48.5788 23.8659 48.1413 23.6904 47.6035 23.6904ZM50.8574 27.8262C50.7526 28.4915 50.404 29.0361 49.8115 29.46C49.2191 29.8792 48.5059 30.0889 47.6719 30.0889C46.5964 30.0889 45.7441 29.7493 45.1152 29.0703C44.4909 28.3958 44.1787 27.4775 44.1787 26.3154C44.1787 25.1533 44.4909 24.2236 45.1152 23.5264C45.7396 22.8291 46.5713 22.4805 47.6104 22.4805C48.6312 22.4805 49.4401 22.8109 50.0371 23.4717C50.6341 24.1279 50.9326 25.0189 50.9326 26.1445V26.6641H45.6758V26.7529C45.6758 27.3955 45.8604 27.9105 46.2295 28.2979C46.5986 28.6898 47.0885 28.8857 47.6992 28.8857C48.1322 28.8857 48.5059 28.79 48.8203 28.5986C49.1348 28.4072 49.3421 28.1497 49.4424 27.8262H50.8574ZM52.0059 24.6885C52.0059 24.0368 52.2725 23.5059 52.8057 23.0957C53.3389 22.6901 54.0316 22.4873 54.8838 22.4873C55.695 22.4873 56.3672 22.6947 56.9004 23.1094C57.429 23.5195 57.7025 24.0482 57.7207 24.6953H56.3262C56.2943 24.3672 56.1462 24.1074 55.8818 23.916C55.6175 23.7246 55.2734 23.6289 54.8496 23.6289C54.4303 23.6289 54.0908 23.7178 53.8311 23.8955C53.5758 24.0778 53.4482 24.3148 53.4482 24.6064C53.4482 25.0531 53.8333 25.3698 54.6035 25.5566L55.834 25.8506C56.5814 26.0329 57.11 26.2744 57.4199 26.5752C57.7298 26.876 57.8848 27.2998 57.8848 27.8467C57.8848 28.5075 57.5999 29.0475 57.0303 29.4668C56.4606 29.8815 55.7269 30.0889 54.8291 30.0889C53.9678 30.0889 53.2614 29.8838 52.71 29.4736C52.1631 29.068 51.8623 28.528 51.8076 27.8535H53.2705C53.389 28.5872 53.9336 28.9541 54.9043 28.9541C55.3646 28.9541 55.7314 28.8652 56.0049 28.6875C56.2738 28.5098 56.4082 28.2705 56.4082 27.9697C56.4082 27.7327 56.3262 27.5459 56.1621 27.4092C56.0026 27.2725 55.7269 27.154 55.335 27.0537L54.0088 26.7256C52.6735 26.3975 52.0059 25.7184 52.0059 24.6885ZM59.1426 22.5762H60.626V30H59.1426V22.5762ZM59.8877 21.5166C59.6462 21.5166 59.4411 21.4323 59.2725 21.2637C59.1038 21.0996 59.0195 20.8991 59.0195 20.6621C59.0195 20.4206 59.1038 20.2178 59.2725 20.0537C59.4411 19.8896 59.6462 19.8076 59.8877 19.8076C60.1292 19.8076 60.3343 19.8896 60.5029 20.0537C60.6715 20.2178 60.7559 20.4206 60.7559 20.6621C60.7559 20.8991 60.6715 21.0996 60.5029 21.2637C60.3343 21.4323 60.1292 21.5166 59.8877 21.5166ZM65.3564 28.749C65.958 28.749 66.4434 28.5234 66.8125 28.0723C67.1771 27.6165 67.3594 27.015 67.3594 26.2676C67.3594 25.5156 67.1771 24.9095 66.8125 24.4492C66.4434 23.9889 65.958 23.7588 65.3564 23.7588C64.7594 23.7588 64.2809 23.9867 63.9209 24.4424C63.5654 24.8981 63.3877 25.5065 63.3877 26.2676C63.3877 27.0241 63.5654 27.6279 63.9209 28.0791C64.2809 28.5257 64.7594 28.749 65.3564 28.749ZM65.3633 32.6729C64.4701 32.6729 63.7318 32.4814 63.1484 32.0986C62.5651 31.7158 62.237 31.2077 62.1641 30.5742H63.6611C63.7432 30.8613 63.9437 31.0892 64.2627 31.2578C64.5817 31.4264 64.9691 31.5107 65.4248 31.5107C66.0127 31.5107 66.4821 31.3672 66.833 31.0801C67.1839 30.793 67.3594 30.4079 67.3594 29.9248V28.7012H67.3252C66.8649 29.5534 66.0788 29.9795 64.9668 29.9795C64.0371 29.9795 63.2897 29.6423 62.7246 28.9678C62.1549 28.2887 61.8701 27.3864 61.8701 26.2607C61.8701 25.1169 62.1549 24.2031 62.7246 23.5195C63.2897 22.8405 64.0485 22.501 65.001 22.501C66.0947 22.501 66.8854 22.9362 67.373 23.8066H67.4004V22.5762H68.8359V29.8086C68.8359 30.6927 68.5238 31.3923 67.8994 31.9072C67.2796 32.4176 66.4342 32.6729 65.3633 32.6729ZM70.3535 22.5762H71.7686V23.8271H71.7959C72.2562 22.9385 73.0605 22.4941 74.209 22.4941C75.0293 22.4941 75.6764 22.738 76.1504 23.2256C76.6198 23.7178 76.8545 24.39 76.8545 25.2422V30H75.3711V25.5225C75.3711 24.9574 75.2275 24.5244 74.9404 24.2236C74.6533 23.9183 74.2386 23.7656 73.6963 23.7656C73.1357 23.7656 72.6868 23.9434 72.3496 24.2988C72.0078 24.6589 71.8369 25.1305 71.8369 25.7139V30H70.3535V22.5762ZM81.4277 23.6904C80.8945 23.6904 80.4525 23.8682 80.1016 24.2236C79.7461 24.5791 79.5479 25.0417 79.5068 25.6113H83.2734C83.2552 25.0326 83.0775 24.5677 82.7402 24.2168C82.403 23.8659 81.9655 23.6904 81.4277 23.6904ZM84.6816 27.8262C84.5768 28.4915 84.2282 29.0361 83.6357 29.46C83.0433 29.8792 82.3301 30.0889 81.4961 30.0889C80.4206 30.0889 79.5684 29.7493 78.9395 29.0703C78.3151 28.3958 78.0029 27.4775 78.0029 26.3154C78.0029 25.1533 78.3151 24.2236 78.9395 23.5264C79.5638 22.8291 80.3955 22.4805 81.4346 22.4805C82.4554 22.4805 83.2643 22.8109 83.8613 23.4717C84.4583 24.1279 84.7568 25.0189 84.7568 26.1445V26.6641H79.5V26.7529C79.5 27.3955 79.6846 27.9105 80.0537 28.2979C80.4229 28.6898 80.9128 28.8857 81.5234 28.8857C81.9564 28.8857 82.3301 28.79 82.6445 28.5986C82.959 28.4072 83.1663 28.1497 83.2666 27.8262H84.6816ZM85.9531 22.5762H87.3682V23.8271H87.3955C87.5094 23.4124 87.7282 23.0889 88.0518 22.8564C88.3708 22.6195 88.749 22.501 89.1865 22.501C89.3916 22.501 89.5557 22.5192 89.6787 22.5557V23.9434C89.5146 23.8796 89.2982 23.8477 89.0293 23.8477C88.5417 23.8477 88.1543 24.0049 87.8672 24.3193C87.5801 24.6292 87.4365 25.0462 87.4365 25.5703V30H85.9531V22.5762Z" fill="white"/>
<path d="M2.74084 2.77399L2.74187 2.77433L21.5469 9.04233L21.5477 9.04259L21.5473 9.04274L12.8143 12.5357L12.6378 12.6063L12.5528 12.7764L8.12777 21.6264L8.12771 21.6265L2.74084 2.77399Z" fill="#3F94FF" stroke="#72B0FF"/>
</svg>

<svg width="100" height="39" fill="none" xmlns="http://www.w3.org/2000/svg"><rect x="24.5" y="12.5" width="75" height="26" rx="13" fill="#3F94FF"/><rect x="24.5" y="12.5" width="75" height="26" rx="13" stroke="#72B0FF"/><path d="M38.532 20.136c1.472 0 2.618.43 3.439 1.292.82.861 1.23 2.069 1.23 3.623 0 1.558-.41 2.773-1.23 3.643-.82.87-1.967 1.306-3.439 1.306h-3.534v-9.864h3.534Zm-2.003 8.538h1.86c1.048 0 1.852-.31 2.413-.93.56-.624.84-1.517.84-2.68 0-1.162-.28-2.055-.84-2.68-.56-.619-1.365-.929-2.413-.929h-1.86v7.219Zm11.074-4.984c-.533 0-.975.178-1.326.534-.355.355-.553.818-.594 1.387h3.766c-.018-.578-.196-1.043-.533-1.394s-.775-.527-1.313-.527Zm3.254 4.136c-.104.665-.453 1.21-1.045 1.634-.593.42-1.306.629-2.14.629-1.076 0-1.928-.34-2.557-1.019-.624-.674-.936-1.593-.936-2.755s.312-2.091.936-2.789c.625-.697 1.456-1.046 2.495-1.046 1.021 0 1.83.33 2.427.992.597.656.896 1.547.896 2.672v.52h-5.257v.089c0 .642.184 1.157.553 1.545.37.392.86.588 1.47.588.433 0 .807-.096 1.121-.287a1.36 1.36 0 0 0 .622-.773h1.415Zm1.149-3.137c0-.652.267-1.183.8-1.593.533-.406 1.226-.609 2.078-.609.811 0 1.483.208 2.016.622.529.41.803.94.82 1.586h-1.394a1.045 1.045 0 0 0-.444-.779c-.264-.191-.609-.287-1.032-.287-.42 0-.76.089-1.019.266-.255.183-.383.42-.383.711 0 .447.385.764 1.155.95l1.231.295c.747.182 1.276.423 1.586.724.31.301.465.725.465 1.272 0 .66-.285 1.2-.855 1.62-.57.415-1.303.622-2.2.622-.862 0-1.569-.205-2.12-.615a2.15 2.15 0 0 1-.902-1.62h1.462c.119.733.664 1.1 1.634 1.1.46 0 .827-.089 1.1-.267.27-.177.404-.417.404-.717a.69.69 0 0 0-.246-.56c-.16-.137-.435-.256-.827-.356l-1.326-.328c-1.336-.328-2.003-1.008-2.003-2.037Zm7.137-2.113h1.483V30h-1.483v-7.424Zm.745-1.06a.837.837 0 0 1-.615-.252.807.807 0 0 1-.254-.602c0-.241.085-.444.254-.608a.85.85 0 0 1 .615-.246.85.85 0 0 1 .615.246.815.815 0 0 1 .253.608.807.807 0 0 1-.253.602.837.837 0 0 1-.615.253Zm5.468 7.233c.602 0 1.087-.226 1.457-.677.364-.456.546-1.057.546-1.804 0-.752-.182-1.358-.546-1.819-.37-.46-.855-.69-1.457-.69-.597 0-1.075.228-1.435.683-.356.456-.533 1.064-.533 1.826 0 .756.177 1.36.533 1.811.36.447.838.67 1.435.67Zm.007 3.924c-.893 0-1.631-.192-2.215-.574-.583-.383-.911-.891-.984-1.525h1.497c.082.287.283.515.602.684.319.168.706.253 1.162.253.588 0 1.057-.144 1.408-.43.35-.288.526-.673.526-1.156V28.7h-.034c-.46.852-1.246 1.279-2.358 1.279-.93 0-1.677-.338-2.242-1.012-.57-.68-.855-1.582-.855-2.707 0-1.144.285-2.058.855-2.741.565-.68 1.324-1.019 2.276-1.019 1.094 0 1.884.435 2.372 1.306h.027v-1.23h1.436v7.232c0 .884-.312 1.583-.937 2.098-.62.51-1.465.766-2.536.766Zm4.99-10.097h1.416v1.251h.027c.46-.889 1.264-1.333 2.413-1.333.82 0 1.467.244 1.941.732.47.492.704 1.164.704 2.016V30h-1.483v-4.477c0-.566-.143-.999-.43-1.3-.288-.305-.702-.457-1.245-.457-.56 0-1.01.177-1.346.533-.342.36-.513.832-.513 1.415V30h-1.484v-7.424Zm11.075 1.114c-.534 0-.975.178-1.326.534-.356.355-.554.818-.595 1.387h3.766c-.018-.578-.195-1.043-.533-1.394-.337-.351-.774-.527-1.312-.527Zm3.254 4.136c-.105.665-.454 1.21-1.046 1.634-.593.42-1.306.629-2.14.629-1.075 0-1.928-.34-2.556-1.019-.625-.674-.937-1.593-.937-2.755s.312-2.091.936-2.789c.625-.697 1.457-1.046 2.496-1.046 1.02 0 1.83.33 2.426.992.597.656.896 1.547.896 2.672v.52H79.5v.089c0 .642.185 1.157.554 1.545.369.392.859.588 1.47.588.432 0 .806-.096 1.12-.287a1.36 1.36 0 0 0 .623-.773h1.415Zm1.271-5.25h1.415v1.251h.028a1.71 1.71 0 0 1 .656-.97 1.85 1.85 0 0 1 1.134-.356c.206 0 .37.018.493.055v1.387a1.826 1.826 0 0 0-.65-.095c-.487 0-.875.157-1.162.471-.287.31-.43.727-.43 1.251V30h-1.484v-7.424Z" fill="#fff"/><path d="M2.74 2.774h.002l18.805 6.268-8.733 3.494-.176.07-.085.17-4.425 8.85L2.74 2.774Z" fill="#3F94FF" stroke="#72B0FF"/></svg>
